build/img/logo telling.svg

<svg width="81" height="40" viewBox="0 0 81 40" fill="none" xmlns="http://www.w3.org/2000/svg">
<path d="M8.32578 22.7225H8.32502L8.2757 22.7338C8.27427 22.7338 8.27274 22.7347 8.27098 22.735L4.79947 23.5459L4.7462 23.5585C4.74549 23.5582 4.74471 23.5582 4.744 23.5585C4.73565 23.5615 4.72742 23.5649 4.71896 23.569C4.65527 23.5996 4.60598 23.6549 4.58193 23.7228C4.55788 23.7908 4.56102 23.8657 4.59068 23.9313C4.59591 23.9431 4.60215 23.9545 4.60935 23.9652L4.68063 24.0407C4.71363 24.0641 4.75136 24.0795 4.791 24.0857C4.83063 24.092 4.87111 24.0888 4.9094 24.0766C4.87111 24.0888 4.83063 24.092 4.791 24.0857C4.75136 24.0795 4.71363 24.0641 4.68063 24.0407L5.77004 25.1907L7.26713 26.7708C7.26713 26.7716 7.26768 26.7721 7.26823 26.7723L7.29898 26.8047C7.29898 26.8053 7.29953 26.806 7.30008 26.8062C7.33134 26.8339 7.36835 26.8538 7.40827 26.8644C7.44819 26.8751 7.48995 26.8761 7.53034 26.8676C7.57073 26.859 7.60867 26.841 7.64124 26.815C7.67381 26.789 7.70014 26.7557 7.7182 26.7175L7.74522 26.6093L8.33677 24.2112L8.61541 23.0819C8.61266 23.0907 8.60947 23.0994 8.60585 23.108C8.60947 23.0994 8.61266 23.0907 8.61541 23.0819C8.61541 23.0819 8.61606 23.0811 8.61541 23.0803L8.62463 23.0428C8.62463 23.0418 8.62529 23.041 8.62529 23.04C8.63181 22.9975 8.62864 22.9541 8.61603 22.9131C8.60343 22.8721 8.58173 22.8347 8.55265 22.8038C8.52357 22.7729 8.48791 22.7494 8.44849 22.7351C8.40906 22.7208 8.36694 22.7162 8.32546 22.7215L8.32578 22.7225ZM5.07997 23.9105C5.0858 23.8941 5.09007 23.8771 5.09271 23.8598C5.09007 23.8771 5.0858 23.8941 5.07997 23.9105V23.9105ZM5.0937 23.7806C5.09131 23.7627 5.08719 23.745 5.0814 23.7279C5.08716 23.745 5.09124 23.7627 5.09359 23.7806H5.0937ZM8.09712 23.0618C8.10136 23.08 8.1074 23.0978 8.11513 23.1147C8.10736 23.0978 8.10129 23.08 8.09701 23.0618H8.09712ZM8.26725 23.2581C8.28349 23.2641 8.30026 23.2686 8.31733 23.2714C8.30022 23.2686 8.28341 23.2641 8.26714 23.2581H8.26725Z" fill="#1E8BE8"/>
<path d="M15.1746 14.9965C14.5775 13.6694 13.7584 12.4604 12.7547 11.4246L12.7172 11.3859C12.7141 11.3822 12.7108 11.3787 12.7072 11.3756L12.6871 11.3549C12.6862 11.3542 12.6855 11.3535 12.6841 11.352C12.5377 11.2146 12.3567 11.1223 12.1617 11.0855C11.9667 11.0488 11.7656 11.0691 11.5813 11.1441L11.5721 11.1478L11.5611 11.1528L11.552 11.1567C11.5265 11.168 11.5037 11.1793 11.4826 11.1906L11.199 11.4116C11.1867 11.4251 11.1751 11.4393 11.1635 11.4534L10.9085 11.6526L10.9079 11.6389L7.1569 14.5684L7.14823 14.5752L7.13615 14.5847L0.594775 19.6947L0.592358 19.6967L0.458915 19.8006L0.457598 19.8016C0.432143 19.8194 0.407582 19.8386 0.38401 19.8591L0.376321 19.8654C0.268212 19.9578 0.179398 20.0717 0.115223 20.2003C0.0510488 20.3289 0.0128416 20.4695 0.00289946 20.6137C-0.00236824 20.6867 -0.000454613 20.7601 0.00861084 20.8328C0.00861084 20.8341 0.00861191 20.8353 0.00971021 20.8378C0.0178679 20.903 0.0320623 20.9673 0.0521031 21.0298V21.0308V21.0316L0.0529813 21.0337V21.0353V21.0375C0.13644 21.3847 0.252415 21.7227 0.399277 22.0469C0.40422 22.0582 0.409162 22.0685 0.414434 22.0792C0.56166 22.3992 0.738534 22.7039 0.942606 22.9891V22.9899L0.945572 22.9954H0.94634C0.999541 23.0924 1.06705 23.1803 1.14645 23.256L1.147 23.2567C1.32109 23.4233 1.54546 23.5236 1.7827 23.5407C1.84166 23.5451 1.90088 23.5444 1.95974 23.5386C2.04904 23.5301 2.13689 23.5097 2.22114 23.4781L2.29165 23.4616L3.78413 23.1125L3.7994 23.1089L3.80939 23.1067L8.88969 21.9199L10.2861 21.5935L10.292 21.5922L14.9049 20.5145L14.9257 20.5097L15.3629 20.4074L15.3654 20.4068C15.4171 20.3989 15.4683 20.3869 15.5183 20.3711H15.5197C15.545 20.3633 15.5715 20.3534 15.5988 20.3421L15.6087 20.3379L15.6196 20.3334C15.6318 20.3281 15.644 20.3228 15.6561 20.317C15.8264 20.2359 15.9725 20.1093 16.079 19.9504C16.1855 19.7914 16.2487 19.6061 16.2618 19.4135C16.2635 19.39 16.2647 19.3667 16.265 19.3437V19.3412C16.2654 19.2787 16.2605 19.2163 16.2504 19.1547L16.2513 19.1521L16.25 19.1482C16.1301 17.7181 15.7692 16.3203 15.1834 15.0174L15.1788 15.0071L15.1742 14.9967L15.1746 14.9965ZM13.9637 15.7306C14.0126 15.8521 14.0542 15.9765 14.0883 16.1032C14.2353 16.6498 14.2363 17.227 14.0914 17.7741L14.0904 17.7771C14.0886 17.7834 14.0871 17.79 14.0855 17.7964C14.084 17.8028 14.0827 17.8085 14.0811 17.8139L14.0753 17.8169L14.0779 17.8225C14.0755 17.8283 14.0727 17.8338 14.0699 17.8395C14.0672 17.8453 14.0652 17.8501 14.0624 17.8551C14.0595 17.8601 14.055 17.8664 14.0514 17.8715C14.0478 17.8766 14.0449 17.8814 14.0412 17.8861C14.0374 17.8907 14.0325 17.8953 14.0281 17.8999C14.0237 17.9046 14.0201 17.9089 14.0156 17.9129C14.0111 17.917 14.0056 17.9207 14.0006 17.9242C13.9957 17.9277 13.9914 17.9318 13.9865 17.9355C13.9815 17.9393 13.9749 17.942 13.969 17.945C13.9631 17.9481 13.9593 17.9507 13.9543 17.9529C13.9492 17.9552 13.9403 17.958 13.9333 17.9604C13.9288 17.9618 13.9244 17.9639 13.9197 17.9651C13.911 17.9672 13.9021 17.9688 13.8932 17.9699C13.8899 17.9699 13.8866 17.9713 13.8833 17.9717C13.8465 17.9752 13.8094 17.9696 13.7752 17.9552C13.7409 17.9409 13.7105 17.9184 13.6865 17.8894C13.6755 17.8723 13.6646 17.855 13.6536 17.8374C12.9621 16.7542 12.4396 15.5666 12.105 14.3174L12.1038 14.3142C12.1038 14.3133 12.1038 14.312 12.1029 14.312C12.1027 14.3102 12.1022 14.3084 12.1016 14.3068C12.0986 14.2963 12.0955 14.2855 12.0934 14.2751L12.0929 14.2733V14.272C12.0904 14.2554 12.0897 14.2387 12.0908 14.222C12.0927 14.1938 12.1 14.1663 12.1123 14.1411C12.1246 14.1159 12.1416 14.0934 12.1623 14.0749C12.1831 14.0565 12.2072 14.0424 12.2333 14.0336C12.2593 14.0248 12.2868 14.0214 12.3142 14.0235C12.3222 14.0241 12.3302 14.0253 12.3381 14.0269C12.3406 14.0269 12.3431 14.0282 12.3455 14.0288C12.3504 14.03 12.3555 14.0313 12.3604 14.0329L12.3636 14.0387L12.3688 14.0362C12.381 14.0417 12.3933 14.0475 12.4048 14.0533L12.4085 14.0553C13.0689 14.3724 13.5997 14.9185 13.9077 15.5977C13.9288 15.6459 13.9473 15.6897 13.9637 15.7308V15.7306Z" fill="#1E8BE8"/>
<path d="M27.2852 16.4141V21.3967C27.2852 21.7437 27.3645 21.9978 27.5233 22.1589C27.6942 22.3077 27.975 22.382 28.3658 22.382H29.5563V24.5759H27.9445C25.7833 24.5759 24.7027 23.5099 24.7027 21.3781V16.4141H23.4939V14.2761H24.7027V11.729H27.2852V14.2761H29.5563V16.4141H27.2852Z" fill="#2C3944"/>
<path d="M40.8329 19.2029C40.8329 19.5747 40.8085 19.9094 40.7597 20.2068H33.342C33.403 20.9505 33.6594 21.533 34.1112 21.9544C34.563 22.3758 35.1186 22.5866 35.7779 22.5866C36.7303 22.5866 37.408 22.1713 37.8109 21.3409H40.5765C40.2835 22.3325 39.7218 23.1505 38.8915 23.795C38.0612 24.4271 37.0417 24.7432 35.8329 24.7432C34.856 24.7432 33.9769 24.5263 33.1954 24.0925C32.4262 23.6463 31.8218 23.0204 31.3822 22.2147C30.9549 21.4091 30.7412 20.4795 30.7412 19.426C30.7412 18.36 30.9549 17.4243 31.3822 16.6186C31.8096 15.813 32.4079 15.1933 33.1771 14.7595C33.9464 14.3257 34.8316 14.1088 35.8329 14.1088C36.7975 14.1088 37.6583 14.3195 38.4153 14.7409C39.1846 15.1623 39.7768 15.7634 40.1919 16.5443C40.6193 17.3127 40.8329 18.1989 40.8329 19.2029ZM38.1772 18.4592C38.165 17.7899 37.9269 17.2569 37.4629 16.8603C36.9989 16.4513 36.4312 16.2468 35.7596 16.2468C35.1247 16.2468 34.5874 16.4451 34.1478 16.8417C33.7205 17.226 33.458 17.7651 33.3603 18.4592H38.1772Z" fill="#2C3944"/>
<path d="M45.2687 10.818V24.5759H42.7045V10.818H45.2687Z" fill="#2C3944"/>
<path d="M50.3662 10.818V24.5759H47.8021V10.818H50.3662Z" fill="#2C3944"/>
<path d="M54.2 13.049C53.7482 13.049 53.3697 12.9065 53.0644 12.6214C52.7714 12.324 52.6249 11.9583 52.6249 11.5245C52.6249 11.0907 52.7714 10.7313 53.0644 10.4462C53.3697 10.1487 53.7482 10 54.2 10C54.6518 10 55.0242 10.1487 55.3172 10.4462C55.6225 10.7313 55.7751 11.0907 55.7751 11.5245C55.7751 11.9583 55.6225 12.324 55.3172 12.6214C55.0242 12.9065 54.6518 13.049 54.2 13.049ZM55.4637 14.2761V24.5759H52.8996V14.2761H55.4637Z" fill="#2C3944"/>
<path d="M63.6199 14.1273C64.8287 14.1273 65.8056 14.5178 66.5504 15.2986C67.2952 16.0671 67.6676 17.1454 67.6676 18.5336V24.5759H65.1035V18.8868C65.1035 18.0688 64.902 17.4429 64.4991 17.0091C64.0961 16.5629 63.5467 16.3398 62.8507 16.3398C62.1425 16.3398 61.5808 16.5629 61.1657 17.0091C60.7627 17.4429 60.5613 18.0688 60.5613 18.8868V24.5759H57.9971V14.2761H60.5613V15.5589C60.9032 15.1127 61.3366 14.7657 61.8617 14.5178C62.3989 14.2575 62.985 14.1273 63.6199 14.1273Z" fill="#2C3944"/>
<path d="M74.0804 14.1088C74.8375 14.1088 75.5029 14.2637 76.0768 14.5735C76.6507 14.871 77.1025 15.2614 77.4321 15.7448V14.2761H80.0146V24.6502C80.0146 25.6046 79.8253 26.4536 79.4468 27.1973C79.0683 27.9533 78.5005 28.5483 77.7435 28.9821C76.9865 29.4283 76.0707 29.6514 74.9962 29.6514C73.5554 29.6514 72.371 29.3105 71.443 28.6288C70.5273 27.9471 70.0083 27.0176 69.8862 25.8401H72.432C72.5664 26.3111 72.8533 26.6829 73.2929 26.9556C73.7446 27.2407 74.288 27.3832 74.9229 27.3832C75.6678 27.3832 76.2722 27.1539 76.7361 26.6953C77.2001 26.2491 77.4321 25.5674 77.4321 24.6502V23.0513C77.1025 23.5347 76.6446 23.9375 76.0585 24.2598C75.4846 24.5821 74.8253 24.7432 74.0804 24.7432C73.2257 24.7432 72.4443 24.5201 71.7361 24.0739C71.0279 23.6277 70.4662 23.0018 70.0511 22.1961C69.6481 21.3781 69.4466 20.4423 69.4466 19.3888C69.4466 18.3477 69.6481 17.4243 70.0511 16.6186C70.4662 15.813 71.0218 15.1933 71.7177 14.7595C72.4259 14.3257 73.2135 14.1088 74.0804 14.1088ZM77.4321 19.426C77.4321 18.7939 77.31 18.2547 77.0658 17.8085C76.8216 17.3499 76.4919 17.0029 76.0768 16.7674C75.6616 16.5195 75.216 16.3955 74.7398 16.3955C74.2636 16.3955 73.824 16.5133 73.4211 16.7488C73.0181 16.9843 72.6885 17.3313 72.432 17.7899C72.1878 18.2361 72.0657 18.7691 72.0657 19.3888C72.0657 20.0085 72.1878 20.5539 72.432 21.0249C72.6885 21.4834 73.0181 21.8367 73.4211 22.0846C73.8362 22.3325 74.2758 22.4564 74.7398 22.4564C75.216 22.4564 75.6616 22.3387 76.0768 22.1032C76.4919 21.8553 76.8216 21.5082 77.0658 21.062C77.31 20.6034 77.4321 20.0581 77.4321 19.426Z" fill="#2C3944"/>
</svg>

<svg width="81" height="40" fill="none" xmlns="http://www.w3.org/2000/svg"><path d="M8.326 22.723h-.001l-.05.01-.004.002-3.472.81-.053.013h-.002a.27.27 0 00-.162.164.28.28 0 00.027.243l.072.076 1.089 1.15 1.497 1.58.001.001.031.033.001.001a.266.266 0 00.418-.088l.027-.109.592-2.398.278-1.13s.001 0 0 0l.01-.038v-.003a.285.285 0 00-.072-.236.27.27 0 00-.228-.082zM5.08 23.91zm.014-.13zm3.003-.72zm.17.197zm6.908-8.261a12.503 12.503 0 00-2.42-3.571l-.038-.04a.089.089 0 00-.01-.01l-.02-.02-.003-.003a1.032 1.032 0 00-1.103-.208l-.009.004-.01.005-.01.004a1.029 1.029 0 00-.07.034l-.283.22-.035.042-.255.2-.001-.014-3.751 2.93-.009.006-.012.01-6.541 5.11-.003.002-.133.104H.458a.885.885 0 00-.074.058l-.008.006a1.067 1.067 0 00-.373.749 1.12 1.12 0 00.05.416v.008a5.642 5.642 0 00.89 1.951l.003.006c.054.097.121.185.2.261h.001a1.026 1.026 0 001.074.222l.07-.016 1.493-.35.015-.003.01-.002 5.08-1.187 1.397-.327h.006l4.613-1.078.02-.005.438-.103h.002a1 1 0 00.153-.036h.002a.91.91 0 00.079-.029l.01-.004.01-.005.037-.016c.17-.081.316-.208.423-.367a1.099 1.099 0 00.186-.606v-.003c0-.062-.005-.125-.015-.186l.001-.003-.001-.004c-.12-1.43-.48-2.828-1.067-4.13l-.004-.01-.005-.011zm-1.211.735a3.243 3.243 0 01.128 2.043l-.002.003-.005.02-.004.017-.006.003.003.006-.008.017-.008.015-.01.017-.01.014-.014.014-.012.013-.015.011-.014.012-.018.009-.015.008-.02.007-.014.005a.237.237 0 01-.027.005l-.01.002a.224.224 0 01-.196-.083 12.6 12.6 0 01-1.582-3.572l-.001-.003-.001-.002-.001-.005c-.003-.01-.007-.021-.009-.032v-.003a.232.232 0 01.02-.13.216.216 0 01.12-.108.204.204 0 01.105-.007l.008.002.014.004.004.006.005-.003a.927.927 0 01.036.017l.004.002a3.148 3.148 0 011.555 1.676z" fill="#1E8BE8"/><path d="M27.285 16.414v4.983c0 .347.08.6.238.762.171.149.452.223.843.223h1.19v2.194h-1.611c-2.162 0-3.242-1.066-3.242-3.198v-4.964h-1.21v-2.138h1.21V11.73h2.582v2.547h2.271v2.138h-2.27zm13.548 2.789c0 .372-.024.706-.073 1.004h-7.418c.061.744.317 1.326.77 1.747.451.422 1.007.633 1.666.633.952 0 1.63-.416 2.033-1.246h2.766a4.74 4.74 0 01-1.685 2.454c-.83.632-1.85.948-3.06.948-.976 0-1.855-.217-2.637-.65a4.756 4.756 0 01-1.813-1.878c-.427-.806-.64-1.735-.64-2.789 0-1.066.213-2.002.64-2.807a4.51 4.51 0 011.795-1.86c.77-.433 1.655-.65 2.656-.65.965 0 1.825.21 2.582.632a4.328 4.328 0 011.777 1.803c.427.769.64 1.655.64 2.659zm-2.656-.744c-.012-.67-.25-1.202-.714-1.599-.464-.409-1.032-.613-1.703-.613-.635 0-1.173.198-1.612.595-.428.384-.69.923-.788 1.617h4.817zm7.092-7.641v13.758h-2.564V10.818h2.564zm5.097 0v13.758h-2.564V10.818h2.564zm3.834 2.231c-.452 0-.83-.143-1.136-.428a1.503 1.503 0 01-.44-1.097c0-.433.147-.793.44-1.078A1.563 1.563 0 0154.2 10c.452 0 .824.149 1.117.446.306.285.458.645.458 1.079 0 .433-.152.799-.458 1.096-.293.285-.665.428-1.117.428zm1.264 1.227v10.3H52.9v-10.3h2.564zm8.156-.149c1.209 0 2.186.39 2.93 1.172.745.768 1.118 1.846 1.118 3.235v6.042h-2.565v-5.69c0-.817-.201-1.443-.604-1.877-.403-.446-.952-.67-1.648-.67-.709 0-1.27.224-1.685.67-.403.434-.605 1.06-.605 1.878v5.689h-2.564v-10.3h2.564v1.283a3.485 3.485 0 011.3-1.041 3.978 3.978 0 011.759-.39zm10.46-.018c.758 0 1.423.155 1.997.464.574.298 1.026.688 1.355 1.172v-1.469h2.583V24.65c0 .955-.19 1.804-.568 2.547a4.181 4.181 0 01-1.704 1.785c-.756.446-1.672.67-2.747.67-1.44 0-2.625-.341-3.553-1.023-.916-.682-1.435-1.611-1.557-2.789h2.546c.134.471.421.843.86 1.116.453.285.996.427 1.63.427.746 0 1.35-.23 1.814-.688.464-.446.696-1.128.696-2.045v-1.599c-.33.484-.787.887-1.374 1.209-.573.322-1.233.483-1.978.483a4.31 4.31 0 01-2.344-.67c-.708-.445-1.27-1.071-1.685-1.877-.403-.818-.604-1.754-.604-2.807 0-1.041.201-1.965.604-2.77.415-.806.97-1.426 1.667-1.86a4.434 4.434 0 012.362-.65zm3.352 5.317c0-.632-.122-1.171-.366-1.617a2.527 2.527 0 00-.99-1.042 2.564 2.564 0 00-1.336-.372c-.476 0-.916.118-1.319.354-.403.235-.733.582-.989 1.04-.244.447-.366.98-.366 1.6 0 .62.122 1.165.366 1.636.257.458.586.812.99 1.06.414.247.854.371 1.318.371a2.66 2.66 0 001.337-.353c.415-.248.745-.595.989-1.041.244-.459.366-1.004.366-1.636z" fill="#2C3944"/></svg>
